packages/match-icons/sendgrid/svg/cloud.svg

<svg fill="none" height="32" viewBox="0 0 32 32" width="32" xmlns="http://www.w3.org/2000/svg"><g stroke="#394762" stroke-linecap="round" stroke-linejoin="round" stroke-width="1.7"><path d="m15.0347 21.5786c-.0001.3344.0208.6683.0626 1-.0418-.3317-.0627-.6656-.0626-1 .0025-.5023.053-1.0032.1506-1.496"/><path d="m23.0347 29.5786c1.5186.0018 3.0064-.4287 4.2894-1.2411s2.3083-1.9733 2.956-3.3469.8911-2.9031.7016-4.4099c-.1894-1.5068-.8038-2.9285-1.7713-4.099-.9676-1.1705-2.2483-2.0415-3.6925-2.511-1.4442-.4696-2.9922-.5184-4.4632-.1408-1.4709.3777-2.8039 1.1662-3.8433 2.2734-1.0393 1.1073-1.7421 2.4875-2.0261 3.9793-.6764-.3243-1.4171-.492-2.1673-.4906-.7501.0013-1.4902.1716-2.1655.4982s-1.26826.8012-1.73495 1.3884c-.46669.5873-.79507 1.2721-.96076 2.0037s-.16443 1.4911.00369 2.2221c.16812.7311.49879 1.4148.96742 2.0005.46864.5857 1.0632 1.0583 1.7396 1.3827.6763.3244 1.417.4922 2.1672.491z"/><path d="m8.03467 11.5786c-.00005.3344.02088.6683.06266 1-.04178-.3317-.06271-.6656-.06266-1 .00258-.5023.05303-1.0032.15066-1.496"/><path d="m23.78 9.56796c-.4575-1.75751-1.4994-3.30706-2.9543-4.39391-1.455-1.08685-3.2364-1.64633-5.0515-1.58645-1.8151.05989-3.5558.73556-4.936 1.91595-1.38013 1.18039-2.31759 2.79524-2.65825 4.57905-.6764-.32423-1.41716-.49193-2.16727-.49062s-1.49029.1716-2.16555.49822c-.67527.3266-1.26826.8012-1.73495 1.3885-.46669.5872-.79508 1.2721-.96077 2.0036-.165685.7316-.164422 1.4911.0037 2.2222.16812.731.49878 1.4147.96742 2.0004s1.06322 1.0583 1.73956 1.3827c.67635.3244 1.41709.4922 2.1672.491"/></g></svg>

<svg width="32" height="32" viewBox="0 0 32 32" fill="none" xmlns="http://www.w3.org/2000/svg">
<path d="M15.0347 21.5786C15.0346 21.913 15.0555 22.2469 15.0973 22.5786C15.0555 22.2469 15.0346 21.913 15.0347 21.5786C15.0372 21.0763 15.0877 20.5754 15.1853 20.0826" stroke="#394762" stroke-width="1.7" stroke-linecap="round" stroke-linejoin="round"/>
<path d="M23.0347 29.5786C24.5533 29.5804 26.0411 29.1499 27.3241 28.3375C28.6071 27.5251 29.6324 26.3642 30.2801 24.9906C30.9278 23.617 31.1712 22.0875 30.9817 20.5807C30.7923 19.0739 30.1779 17.6522 29.2104 16.4817C28.2428 15.3112 26.9621 14.4402 25.5179 13.9707C24.0737 13.5011 22.5257 13.4523 21.0547 13.8299C19.5838 14.2076 18.2508 14.9961 17.2114 16.1033C16.1721 17.2106 15.4693 18.5908 15.1853 20.0826C14.5089 19.7583 13.7682 19.5906 13.018 19.592C12.2679 19.5933 11.5278 19.7636 10.8525 20.0902C10.1772 20.4168 9.58424 20.8914 9.11755 21.4786C8.65086 22.0659 8.32248 22.7507 8.15679 23.4823C7.9911 24.2139 7.99236 24.9734 8.16048 25.7044C8.3286 26.4355 8.65927 27.1192 9.1279 27.7049C9.59654 28.2906 10.1911 28.7632 10.8675 29.0876C11.5438 29.412 12.2845 29.5798 13.0347 29.5786H23.0347Z" stroke="#394762" stroke-width="1.7" stroke-linecap="round" stroke-linejoin="round"/>
<path d="M8.03467 11.5786C8.03462 11.913 8.05555 12.2469 8.09733 12.5786C8.05555 12.2469 8.03462 11.913 8.03467 11.5786C8.03725 11.0763 8.0877 10.5754 8.18533 10.0826" stroke="#394762" stroke-width="1.7" stroke-linecap="round" stroke-linejoin="round"/>
<path d="M23.78 9.56796C23.3225 7.81045 22.2806 6.2609 20.8257 5.17405C19.3707 4.0872 17.5893 3.52772 15.7742 3.5876C13.9591 3.64749 12.2184 4.32316 10.8382 5.50355C9.45807 6.68394 8.52061 8.29879 8.17995 10.0826C7.50355 9.75837 6.76279 9.59067 6.01268 9.59198C5.26257 9.59329 4.52239 9.76358 3.84713 10.0902C3.17186 10.4168 2.57887 10.8914 2.11218 11.4787C1.64549 12.0659 1.3171 12.7508 1.15141 13.4823C0.985725 14.2139 0.986988 14.9734 1.15511 15.7045C1.32323 16.4355 1.65389 17.1192 2.12253 17.7049C2.59117 18.2906 3.18575 18.7632 3.86209 19.0876C4.53844 19.412 5.27918 19.5798 6.02929 19.5786" stroke="#394762" stroke-width="1.7" stroke-linecap="round" stroke-linejoin="round"/>
</svg>
